X: 1
T:Kitty's gone a-milking
M:4/4
L:1/8
K:G
dGG2 d2cA|dGG2 FGAB|dGG2 d2eg|fdcA G2Bc:|!
dgg2 bgg2|dgg2 d2Bc|dgg2 bgg2|dcAB c2Bc|!
dgg2 bgg2|dgg2 d2cA|defg a2ag|fdcA G2Bc||!
